; G-Code generated by Simplify3D(R) Version 4.0.0
; Oct 19, 2017 at 5:27:23 PM
; Settings Summary
;   processName,Process1
;   applyToModels,150mm_Mitutoy_ Holder
;   profileName,My Prusa Reserach (modified)
;   profileVersion,2017-10-18 10:56:48
;   baseProfile,Prusa Research Original Prusa i3 MK2
;   printMaterial,PLA
;   printQuality,High
;   printExtruders,
;   extruderName,Primary Extruder
;   extruderToolheadNumber,0
;   extruderDiameter,0.4
;   extruderAutoWidth,1
;   extruderWidth,0.48
;   extrusionMultiplier,1
;   extruderUseRetract,1
;   extruderRetractionDistance,1.5
;   extruderExtraRestartDistance,0
;   extruderRetractionZLift,0
;   extruderRetractionSpeed,1800
;   extruderUseCoasting,1
;   extruderCoastingDistance,0.2
;   extruderUseWipe,1
;   extruderWipeDistance,2
;   primaryExtruder,0
;   layerHeight,0.2
;   topSolidLayers,4
;   bottomSolidLayers,4
;   perimeterOutlines,4
;   printPerimetersInsideOut,1
;   startPointOption,2
;   startPointOriginX,0
;   startPointOriginY,0
;   sequentialIslands,0
;   spiralVaseMode,0
;   firstLayerHeightPercentage,100
;   firstLayerWidthPercentage,100
;   firstLayerUnderspeed,0.5
;   useRaft,0
;   raftExtruder,0
;   raftTopLayers,3
;   raftBaseLayers,2
;   raftOffset,3
;   raftSeparationDistance,0.14
;   raftTopInfill,100
;   aboveRaftSpeedMultiplier,0.3
;   useSkirt,1
;   skirtExtruder,0
;   skirtLayers,2
;   skirtOutlines,2
;   skirtOffset,4
;   usePrimePillar,0
;   primePillarExtruder,999
;   primePillarWidth,12
;   primePillarLocation,7
;   primePillarSpeedMultiplier,1
;   useOozeShield,0
;   oozeShieldExtruder,999
;   oozeShieldOffset,2
;   oozeShieldOutlines,1
;   oozeShieldSidewallShape,1
;   oozeShieldSidewallAngle,30
;   oozeShieldSpeedMultiplier,1
;   infillExtruder,0
;   internalInfillPattern,Rectilinear
;   externalInfillPattern,Rectilinear
;   infillPercentage,30
;   outlineOverlapPercentage,20
;   infillExtrusionWidthPercentage,100
;   minInfillLength,5
;   infillLayerInterval,1
;   internalInfillAngles,45,-45
;   overlapInternalInfillAngles,0
;   externalInfillAngles,45,-45
;   generateSupport,0
;   supportExtruder,0
;   supportInfillPercentage,40
;   supportExtraInflation,0
;   supportBaseLayers,0
;   denseSupportExtruder,0
;   denseSupportLayers,0
;   denseSupportInfillPercentage,70
;   supportLayerInterval,1
;   supportHorizontalPartOffset,0.3
;   supportUpperSeparationLayers,1
;   supportLowerSeparationLayers,1
;   supportType,0
;   supportGridSpacing,4
;   maxOverhangAngle,45
;   supportAngles,0
;   temperatureName,Primary Extruder,Heated Bed
;   temperatureNumber,0,0
;   temperatureSetpointCount,1,1
;   temperatureSetpointLayers,1,1
;   temperatureSetpointTemperatures,200,60
;   temperatureStabilizeAtStartup,1,1
;   temperatureHeatedBed,0,1
;   temperatureRelayBetweenLayers,0,0
;   temperatureRelayBetweenLoops,0,0
;   fanLayers,1,2
;   fanSpeeds,0,100
;   blipFanToFullPower,0
;   adjustSpeedForCooling,1
;   minSpeedLayerTime,15
;   minCoolingSpeedSlowdown,20
;   increaseFanForCooling,0
;   minFanLayerTime,45
;   maxCoolingFanSpeed,100
;   increaseFanForBridging,0
;   bridgingFanSpeed,100
;   use5D,1
;   relativeEdistances,0
;   allowEaxisZeroing,1
;   independentExtruderAxes,0
;   includeM10123,0
;   stickySupport,1
;   applyToolheadOffsets,0
;   gcodeXoffset,0
;   gcodeYoffset,0
;   gcodeZoffset,0
;   overrideMachineDefinition,1
;   machineTypeOverride,0
;   strokeXoverride,250
;   strokeYoverride,210
;   strokeZoverride,200
;   originOffsetXoverride,0
;   originOffsetYoverride,0
;   originOffsetZoverride,0
;   homeXdirOverride,-1
;   homeYdirOverride,-1
;   homeZdirOverride,-1
;   flipXoverride,1
;   flipYoverride,-1
;   flipZoverride,1
;   toolheadOffsets,0,0|0,0|0,0|0,0|0,0|0,0
;   overrideFirmwareConfiguration,1
;   firmwareTypeOverride,RepRap (Marlin/Repetier/Sprinter)
;   GPXconfigOverride,r2
;   baudRateOverride,250000
;   overridePrinterModels,1
;   printerModelsOverride
;   startingGcode,M115 U3.0.7 ; use the latest firmware version,G28 W ; home all axes without mesh bed leveling,G80 ; run mesh bed leveling routine,G1 Y-3.0 F1000.0 ; prepare to prime,G92 E0 ; reset extrusion distance,G1 X60.0 E9.0  F1000.0 ; priming,G1 X100.0 E12.5  F1000.0 ; priming
;   layerChangeGcode,
;   retractionGcode,
;   toolChangeGcode,
;   endingGcode,M106 S0 ; turn off cooling fan,M104 S0 ; turn off extruder,M140 S0 ; turn off bed,G1 X0 Y200 ; part removal,M84 ; disable motors
;   exportFileFormat,gcode
;   celebration,0
;   celebrationSong,Random Song
;   postProcessing,
;   defaultSpeed,2400
;   outlineUnderspeed,0.8
;   solidInfillUnderspeed,0.8
;   supportUnderspeed,0.8
;   rapidXYspeed,4800
;   rapidZspeed,1000
;   minBridgingArea,50
;   bridgingExtraInflation,0
;   bridgingExtrusionMultiplier,1
;   bridgingSpeedMultiplier,1
;   useFixedBridgingAngle,0
;   fixedBridgingAngle,0
;   applyBridgingToPerimeters,0
;   filamentDiameters,1.75|1.75|1.75|1.75|1.75|1.75
;   filamentPricesPerKg,46|46|46|46|46|46
;   filamentDensities,1.25|1.25|1.25|1.25|1.25|1.25
;   useMinPrintHeight,0
;   minPrintHeight,0
;   useMaxPrintHeight,0
;   maxPrintHeight,0
;   useDiaphragm,0
;   diaphragmLayerInterval,20
;   robustSlicing,1
;   mergeAllIntoSolid,0
;   onlyRetractWhenCrossingOutline,1
;   retractBetweenLayers,1
;   useRetractionMinTravel,0
;   retractionMinTravel,3
;   retractWhileWiping,1
;   onlyWipeOutlines,1
;   avoidCrossingOutline,0
;   maxMovementDetourFactor,3
;   toolChangeRetractionDistance,12
;   toolChangeExtraRestartDistance,-0.5
;   toolChangeRetractionSpeed,600
;   externalThinWallType,0
;   internalThinWallType,2
;   thinWallAllowedOverlapPercentage,25
;   singleExtrusionMinLength,1
;   singleExtrusionMinPrintingWidthPercentage,50
;   singleExtrusionMaxPrintingWidthPercentage,200
;   singleExtrusionEndpointExtension,0.2
;   horizontalSizeCompensation,0
G90
M82
M106 S0
M140 S60
M190 S60
M104 S200 T0
M109 S200 T0
M115 U3.0.7 ; use the latest firmware version
G28 W ; home all axes without mesh bed leveling
G80 ; run mesh bed leveling routine
G1 Y-3.0 F1000.0 ; prepare to prime
G92 E0 ; reset extrusion distance
G1 X60.0 E9.0  F1000.0 ; priming
G1 X100.0 E12.5  F1000.0 ; priming
G92 E0
G1 E-1.5000 F1800
G1 Z0.200 F1000
; process Process1
; layer 1, Z = 0.200
T0
; tool H0.200 W0.480
; skirt
G1 X73.435 Y73.890 F4800
G1 E0.0000 F540
G92 E0
G1 X73.700 Y73.780 E0.0114 F1200
G1 X121.300 Y73.780 E1.9113
G1 X121.565 Y73.890 E1.9227
G1 X124.110 Y76.435 E2.0664
G1 X124.220 Y76.700 E2.0778
G1 X124.220 Y90.248 E2.6186
G1 X124.141 Y90.477 E2.6282
G1 X122.276 Y92.845 E2.7485
G1 X122.072 Y92.976 E2.7582
G1 X94.091 Y99.730 E3.9071
G1 X90.220 Y104.246 E4.1445
G1 X90.220 Y105.791 E4.2061
G1 X94.054 Y110.265 E4.4413
G1 X124.010 Y116.817 E5.6652
G1 X145.790 Y116.817 E6.5344
G1 X157.253 Y113.290 E7.0131
G1 X159.780 Y111.269 E7.1423
G1 X159.780 Y110.769 E7.1623
G1 X157.267 Y108.758 E7.2907
G1 X147.764 Y105.907 E7.6867
G1 X147.573 Y105.774 E7.6960
G1 X145.853 Y103.461 E7.8110
G1 X145.780 Y103.241 E7.8203
G1 X145.780 Y89.700 E8.3607
G1 X145.890 Y89.435 E8.3722
G1 X148.435 Y86.890 E8.5158
G1 X148.700 Y86.780 E8.5273
G1 X176.300 Y86.780 E9.6289
G1 X176.565 Y86.890 E9.6403
G1 X179.110 Y89.435 E9.7840
G1 X179.220 Y89.700 E9.7954
G1 X179.220 Y133.300 E11.5356
G1 X179.110 Y133.565 E11.5470
G1 X176.565 Y136.110 E11.6907
G1 X176.300 Y136.220 E11.7021
G1 X73.700 Y136.220 E15.7971
G1 X73.435 Y136.110 E15.8086
G1 X70.890 Y133.565 E15.9523
G1 X70.780 Y133.300 E15.9637
G1 X70.780 Y76.700 E18.2227
G1 X70.890 Y76.435 E18.2342
G1 X73.294 Y74.031 E18.3699
G1 X73.435 Y73.890 F1200
G1 X73.707 Y74.297 F4800
G92 E0
G1 X73.795 Y74.260 E0.0038 F1200
G1 X121.205 Y74.260 E1.8960
G1 X121.293 Y74.297 E1.8998
G1 X123.703 Y76.707 E2.0359
G1 X123.740 Y76.795 E2.0397
G1 X123.740 Y90.167 E2.5734
G1 X123.714 Y90.244 E2.5766
G1 X121.949 Y92.485 E2.6905
G1 X121.881 Y92.528 E2.6937
G1 X93.827 Y99.300 E3.8455
G1 X89.740 Y104.068 E4.0962
G1 X89.740 Y105.969 E4.1721
G1 X93.794 Y110.699 E4.4207
G1 X123.958 Y117.297 E5.6531
G1 X145.862 Y117.297 E6.5273
G1 X157.482 Y113.722 E7.0125
G1 X160.260 Y111.500 E7.1545
G1 X160.260 Y110.538 E7.1929
G1 X157.494 Y108.325 E7.3343
G1 X147.976 Y105.469 E7.7309
G1 X147.912 Y105.425 E7.7340
G1 X146.284 Y103.237 E7.8429
G1 X146.260 Y103.164 E7.8460
G1 X146.260 Y89.795 E8.3795
G1 X146.297 Y89.707 E8.3833
G1 X148.707 Y87.297 E8.5194
G1 X148.795 Y87.260 E8.5232
G1 X176.205 Y87.260 E9.6172
G1 X176.293 Y87.297 E9.6210
G1 X178.703 Y89.707 E9.7570
G1 X178.740 Y89.795 E9.7609
G1 X178.740 Y133.205 E11.4934
G1 X178.703 Y133.293 E11.4972
G1 X176.293 Y135.703 E11.6333
G1 X176.205 Y135.740 E11.6371
G1 X73.795 Y135.740 E15.7245
G1 X73.707 Y135.703 E15.7283
G1 X71.297 Y133.293 E15.8643
G1 X71.260 Y133.205 E15.8682
G1 X71.260 Y76.795 E18.1196
G1 X71.297 Y76.707 E18.1234
G1 X73.566 Y74.438 E18.2515
G1 X73.707 Y74.297 F1200
G92 E0
G1 E-1.5000 F1800
; inner perimeter
G1 X77.180 Y80.180 F4800
G1 E0.0000 F1800
G92 E0
G1 X117.820 Y80.180 E1.6220 F1080
G1 X117.820 Y87.419 E1.9109
G1 X90.578 Y93.994 E3.0295
G1 X83.820 Y101.879 E3.4439
G1 X83.820 Y108.159 E3.6946
G1 X90.591 Y116.058 E4.1098
G1 X123.318 Y123.218 E5.4469
G1 X146.753 Y123.218 E6.3822
G1 X160.300 Y119.049 E6.9480
G1 X166.180 Y114.345 E7.2485
G1 X166.180 Y107.693 E7.5140
G1 X160.295 Y102.985 E7.8148
G1 X152.180 Y100.550 E8.1530
G1 X152.180 Y93.180 E8.4471
G1 X172.820 Y93.180 E9.2709
G1 X172.820 Y129.820 E10.7333
G1 X77.180 Y129.820 E14.5505
G1 X77.180 Y80.380 E16.5238
G1 X77.180 Y80.180 F1080
G1 X76.700 Y79.700 F4800
G92 E0
G1 X118.300 Y79.700 E1.6603 F1080
G1 X118.300 Y87.797 E1.9835
G1 X90.841 Y94.425 E3.1109
G1 X84.300 Y102.056 E3.5121
G1 X84.300 Y107.981 E3.7486
G1 X90.851 Y115.624 E4.1503
G1 X123.370 Y122.737 E5.4789
G1 X146.680 Y122.737 E6.4093
G1 X160.071 Y118.617 E6.9685
G1 X165.700 Y114.114 E7.2562
G1 X165.700 Y107.923 E7.5033
G1 X160.068 Y103.418 E7.7911
G1 X151.700 Y100.907 E8.1398
G1 X151.700 Y92.700 E8.4674
G1 X173.300 Y92.700 E9.3295
G1 X173.300 Y130.300 E10.8302
G1 X76.700 Y130.300 E14.6857
G1 X76.700 Y79.900 E16.6973
G1 X76.700 Y79.700 F1080
G1 X76.220 Y79.220 F4800
G92 E0
G1 X118.780 Y79.220 E1.6987 F1080
G1 X118.780 Y88.174 E2.0561
G1 X91.105 Y94.855 E3.1924
G1 X84.780 Y102.234 E3.5802
G1 X84.780 Y107.804 E3.8026
G1 X91.110 Y115.189 E4.1908
G1 X123.422 Y122.257 E5.5109
G1 X146.608 Y122.257 E6.4363
G1 X159.843 Y118.185 E6.9890
G1 X165.220 Y113.884 E7.2638
G1 X165.220 Y108.154 E7.4925
G1 X159.841 Y103.850 E7.7675
G1 X151.220 Y101.264 E8.1267
G1 X151.220 Y92.220 E8.4877
G1 X173.780 Y92.220 E9.3881
G1 X173.780 Y130.780 E10.9271
G1 X76.220 Y130.780 E14.8209
G1 X76.220 Y79.420 E16.8708
G1 X76.220 Y79.220 F1080
; outer perimeter
G1 X75.740 Y78.740 F4800
G92 E0
G1 X119.260 Y78.740 E1.7370 F960
G1 X119.260 Y88.552 E2.1286
G1 X91.368 Y95.285 E3.2738
G1 X85.260 Y102.411 E3.6484
G1 X85.260 Y107.626 E3.8566
G1 X91.370 Y114.755 E4.2313
G1 X123.474 Y121.778 E5.5429
G1 X146.536 Y121.778 E6.4634
G1 X159.614 Y117.753 E7.0095
G1 X164.740 Y113.653 E7.2715
G1 X164.740 Y108.385 E7.4818
G1 X159.614 Y104.284 E7.7438
G1 X150.740 Y101.621 E8.1135
G1 X150.740 Y91.740 E8.5079
G1 X174.260 Y91.740 E9.4467
G1 X174.260 Y131.260 E11.0240
G1 X75.740 Y131.260 E14.9561
G1 X75.740 Y78.940 E17.0443
G1 X75.740 Y78.740 F960
G1 X77.740 Y78.740 F2400
; inner perimeter
G1 X80.653 Y82.300 F4800
G92 E0
G1 X79.888 Y82.888 E0.0385 F1080
G1 X79.300 Y83.653 E0.0770
G1 X78.931 Y84.544 E0.1155
G1 X78.805 Y85.500 E0.1540
G1 X78.931 Y86.456 E0.1925
G1 X79.300 Y87.347 E0.2310
G1 X79.888 Y88.112 E0.2695
G1 X80.653 Y88.700 E0.3079
G1 X81.544 Y89.069 E0.3464
G1 X82.500 Y89.195 E0.3849
G1 X83.456 Y89.069 E0.4234
G1 X84.347 Y88.700 E0.4619
G1 X85.112 Y88.112 E0.5004
G1 X85.700 Y87.347 E0.5389
G1 X86.069 Y86.456 E0.5774
G1 X86.195 Y85.500 E0.6159
G1 X86.069 Y84.544 E0.6544
G1 X85.700 Y83.653 E0.6929
G1 X85.112 Y82.888 E0.7314
G1 X84.347 Y82.300 E0.7699
G1 X83.456 Y81.931 E0.8084
G1 X82.500 Y81.805 E0.8469
G1 X81.544 Y81.931 E0.8854
G1 X80.838 Y82.224 E0.9159
G1 X80.653 Y82.300 F1080
G1 X80.895 Y82.720 F4800
G92 E0
G1 X80.230 Y83.230 E0.0334 F1080
G1 X79.720 Y83.895 E0.0669
G1 X79.399 Y84.669 E0.1003
G1 X79.290 Y85.500 E0.1338
G1 X79.399 Y86.331 E0.1672
G1 X79.720 Y87.105 E0.2007
G1 X80.230 Y87.770 E0.2341
G1 X80.895 Y88.280 E0.2676
G1 X81.669 Y88.601 E0.3010
G1 X82.500 Y88.710 E0.3345
G1 X83.331 Y88.601 E0.3679
G1 X84.105 Y88.280 E0.4014
G1 X84.770 Y87.770 E0.4348
G1 X85.280 Y87.105 E0.4683
G1 X85.601 Y86.331 E0.5017
G1 X85.710 Y85.500 E0.5352
G1 X85.601 Y84.669 E0.5686
G1 X85.280 Y83.895 E0.6021
G1 X84.770 Y83.230 E0.6355
G1 X84.105 Y82.720 E0.6690
G1 X83.331 Y82.399 E0.7024
G1 X82.500 Y82.290 E0.7359
G1 X81.669 Y82.399 E0.7693
G1 X81.080 Y82.643 E0.7948
G1 X80.895 Y82.720 F1080
G1 X81.137 Y83.139 F4800
G92 E0
G1 X80.572 Y83.572 E0.0284 F1080
G1 X80.139 Y84.137 E0.0568
G1 X79.867 Y84.794 E0.0852
G1 X79.774 Y85.500 E0.1136
G1 X79.867 Y86.206 E0.1420
G1 X80.139 Y86.863 E0.1704
G1 X80.572 Y87.428 E0.1988
G1 X81.137 Y87.861 E0.2272
G1 X81.794 Y88.133 E0.2556
G1 X82.500 Y88.226 E0.2840
G1 X83.206 Y88.133 E0.3125
G1 X83.863 Y87.861 E0.3409
G1 X84.428 Y87.428 E0.3693
G1 X84.861 Y86.863 E0.3977
G1 X85.133 Y86.206 E0.4261
G1 X85.226 Y85.500 E0.4545
G1 X85.133 Y84.794 E0.4829
G1 X84.861 Y84.137 E0.5113
G1 X84.428 Y83.572 E0.5397
G1 X83.863 Y83.139 E0.5681
G1 X83.206 Y82.867 E0.5965
G1 X82.500 Y82.774 E0.6249
G1 X81.794 Y82.867 E0.6533
G1 X81.322 Y83.062 E0.6737
G1 X81.137 Y83.139 F1080
; outer perimeter
G1 X81.379 Y83.558 F4800
G92 E0
G1 X80.915 Y83.915 E0.0234 F960
G1 X80.558 Y84.379 E0.0467
G1 X80.334 Y84.920 E0.0701
G1 X80.258 Y85.500 E0.0934
G1 X80.334 Y86.080 E0.1168
G1 X80.558 Y86.621 E0.1402
G1 X80.915 Y87.085 E0.1635
G1 X81.379 Y87.442 E0.1869
G1 X81.920 Y87.666 E0.2102
G1 X82.500 Y87.742 E0.2336
G1 X83.080 Y87.666 E0.2570
G1 X83.621 Y87.442 E0.2803
G1 X84.085 Y87.085 E0.3037
G1 X84.442 Y86.621 E0.3270
G1 X84.666 Y86.080 E0.3504
G1 X84.742 Y85.500 E0.3738
G1 X84.666 Y84.920 E0.3971
G1 X84.442 Y84.379 E0.4205
G1 X84.085 Y83.915 E0.4438
G1 X83.621 Y83.558 E0.4672
G1 X83.080 Y83.334 E0.4906
G1 X82.500 Y83.258 E0.5139
G1 X81.920 Y83.334 E0.5373
G1 X81.564 Y83.482 E0.5527
G1 X81.379 Y83.558 F960
G1 X80.915 Y83.915 F2400
G1 X80.558 Y84.379 F2400
G1 X80.334 Y84.920 F2400
G1 X80.302 Y85.162 F2400
; inner perimeter
G1 X82.500 Y120.805 F4800
G92 E0
G1 X81.544 Y120.931 E0.0385 F1080
G1 X80.653 Y121.300 E0.0770
G1 X79.888 Y121.888 E0.1155
G1 X79.300 Y122.653 E0.1540
G1 X78.931 Y123.544 E0.1925
G1 X78.805 Y124.500 E0.2310
G1 X78.931 Y125.456 E0.2695
G1 X79.300 Y126.347 E0.3079
G1 X79.888 Y127.112 E0.3464
G1 X80.653 Y127.700 E0.3849
G1 X81.544 Y128.069 E0.4234
G1 X82.500 Y128.195 E0.4619
G1 X83.456 Y128.069 E0.5004
G1 X84.347 Y127.700 E0.5389
G1 X85.112 Y127.112 E0.5774
G1 X85.700 Y126.347 E0.6159
G1 X86.069 Y125.456 E0.6544
G1 X86.195 Y124.500 E0.6929
G1 X86.069 Y123.544 E0.7314
G1 X85.700 Y122.653 E0.7699
G1 X85.112 Y121.888 E0.8084
G1 X84.347 Y121.300 E0.8469
G1 X83.456 Y120.931 E0.8854
G1 X82.698 Y120.832 E0.9159
G1 X82.500 Y120.805 F1080
G1 X82.500 Y121.290 F4800
G92 E0
G1 X81.669 Y121.399 E0.0334 F1080
G1 X80.895 Y121.720 E0.0669
G1 X80.230 Y122.230 E0.1003
G1 X79.720 Y122.895 E0.1338
G1 X79.399 Y123.669 E0.1672
G1 X79.290 Y124.500 E0.2007
G1 X79.399 Y125.331 E0.2341
G1 X79.720 Y126.105 E0.2676
G1 X80.230 Y126.770 E0.3010
G1 X80.895 Y127.280 E0.3345
G1 X81.669 Y127.601 E0.3679
G1 X82.500 Y127.710 E0.4014
G1 X83.331 Y127.601 E0.4348
G1 X84.105 Y127.280 E0.4683
G1 X84.770 Y126.770 E0.5017
G1 X85.280 Y126.105 E0.5352
G1 X85.601 Y125.331 E0.5686
G1 X85.710 Y124.500 E0.6021
G1 X85.601 Y123.669 E0.6355
G1 X85.280 Y122.895 E0.6690
G1 X84.770 Y122.230 E0.7024
G1 X84.105 Y121.720 E0.7359
G1 X83.331 Y121.399 E0.7693
G1 X82.698 Y121.316 E0.7948
G1 X82.500 Y121.290 F1080
G1 X82.500 Y121.774 F4800
G92 E0
G1 X81.794 Y121.867 E0.0284 F1080
G1 X81.137 Y122.139 E0.0568
G1 X80.572 Y122.572 E0.0852
G1 X80.139 Y123.137 E0.1136
G1 X79.867 Y123.794 E0.1420
G1 X79.774 Y124.500 E0.1704
G1 X79.867 Y125.206 E0.1988
G1 X80.139 Y125.863 E0.2272
G1 X80.572 Y126.428 E0.2556
G1 X81.137 Y126.861 E0.2840
