; G-Code generated by Simplify3D(R) Version 4.0.0
; Oct 19, 2017 at 12:17:47 PM
; Settings Summary
;   processName,Process1
;   applyToModels,200mm_Mitutoyo_Holder
;   profileName,My Prusa Reserach (modified)
;   profileVersion,2017-10-18 10:56:48
;   baseProfile,Prusa Research Original Prusa i3 MK2
;   printMaterial,PLA
;   printQuality,High
;   printExtruders,
;   extruderName,Primary Extruder
;   extruderToolheadNumber,0
;   extruderDiameter,0.4
;   extruderAutoWidth,1
;   extruderWidth,0.48
;   extrusionMultiplier,1
;   extruderUseRetract,1
;   extruderRetractionDistance,1.5
;   extruderExtraRestartDistance,0
;   extruderRetractionZLift,0
;   extruderRetractionSpeed,1800
;   extruderUseCoasting,1
;   extruderCoastingDistance,0.2
;   extruderUseWipe,1
;   extruderWipeDistance,2
;   primaryExtruder,0
;   layerHeight,0.2
;   topSolidLayers,4
;   bottomSolidLayers,4
;   perimeterOutlines,4
;   printPerimetersInsideOut,1
;   startPointOption,2
;   startPointOriginX,0
;   startPointOriginY,0
;   sequentialIslands,0
;   spiralVaseMode,0
;   firstLayerHeightPercentage,100
;   firstLayerWidthPercentage,100
;   firstLayerUnderspeed,0.5
;   useRaft,0
;   raftExtruder,0
;   raftTopLayers,3
;   raftBaseLayers,2
;   raftOffset,3
;   raftSeparationDistance,0.14
;   raftTopInfill,100
;   aboveRaftSpeedMultiplier,0.3
;   useSkirt,1
;   skirtExtruder,0
;   skirtLayers,2
;   skirtOutlines,2
;   skirtOffset,4
;   usePrimePillar,0
;   primePillarExtruder,999
;   primePillarWidth,12
;   primePillarLocation,7
;   primePillarSpeedMultiplier,1
;   useOozeShield,0
;   oozeShieldExtruder,999
;   oozeShieldOffset,2
;   oozeShieldOutlines,1
;   oozeShieldSidewallShape,1
;   oozeShieldSidewallAngle,30
;   oozeShieldSpeedMultiplier,1
;   infillExtruder,0
;   internalInfillPattern,Rectilinear
;   externalInfillPattern,Rectilinear
;   infillPercentage,30
;   outlineOverlapPercentage,20
;   infillExtrusionWidthPercentage,100
;   minInfillLength,5
;   infillLayerInterval,1
;   internalInfillAngles,45,-45
;   overlapInternalInfillAngles,0
;   externalInfillAngles,45,-45
;   generateSupport,0
;   supportExtruder,0
;   supportInfillPercentage,40
;   supportExtraInflation,0
;   supportBaseLayers,0
;   denseSupportExtruder,0
;   denseSupportLayers,0
;   denseSupportInfillPercentage,70
;   supportLayerInterval,1
;   supportHorizontalPartOffset,0.3
;   supportUpperSeparationLayers,1
;   supportLowerSeparationLayers,1
;   supportType,0
;   supportGridSpacing,4
;   maxOverhangAngle,45
;   supportAngles,0
;   temperatureName,Primary Extruder,Heated Bed
;   temperatureNumber,0,0
;   temperatureSetpointCount,1,1
;   temperatureSetpointLayers,1,1
;   temperatureSetpointTemperatures,200,60
;   temperatureStabilizeAtStartup,1,1
;   temperatureHeatedBed,0,1
;   temperatureRelayBetweenLayers,0,0
;   temperatureRelayBetweenLoops,0,0
;   fanLayers,1,2
;   fanSpeeds,0,100
;   blipFanToFullPower,0
;   adjustSpeedForCooling,1
;   minSpeedLayerTime,15
;   minCoolingSpeedSlowdown,20
;   increaseFanForCooling,0
;   minFanLayerTime,45
;   maxCoolingFanSpeed,100
;   increaseFanForBridging,0
;   bridgingFanSpeed,100
;   use5D,1
;   relativeEdistances,0
;   allowEaxisZeroing,1
;   independentExtruderAxes,0
;   includeM10123,0
;   stickySupport,1
;   applyToolheadOffsets,0
;   gcodeXoffset,0
;   gcodeYoffset,0
;   gcodeZoffset,0
;   overrideMachineDefinition,1
;   machineTypeOverride,0
;   strokeXoverride,250
;   strokeYoverride,210
;   strokeZoverride,200
;   originOffsetXoverride,0
;   originOffsetYoverride,0
;   originOffsetZoverride,0
;   homeXdirOverride,-1
;   homeYdirOverride,-1
;   homeZdirOverride,-1
;   flipXoverride,1
;   flipYoverride,-1
;   flipZoverride,1
;   toolheadOffsets,0,0|0,0|0,0|0,0|0,0|0,0
;   overrideFirmwareConfiguration,1
;   firmwareTypeOverride,RepRap (Marlin/Repetier/Sprinter)
;   GPXconfigOverride,r2
;   baudRateOverride,250000
;   overridePrinterModels,1
;   printerModelsOverride
;   startingGcode,M115 U3.0.7 ; use the latest firmware version,G28 W ; home all axes without mesh bed leveling,G80 ; run mesh bed leveling routine,G1 Y-3.0 F1000.0 ; prepare to prime,G92 E0 ; reset extrusion distance,G1 X60.0 E9.0  F1000.0 ; priming,G1 X100.0 E12.5  F1000.0 ; priming
;   layerChangeGcode,
;   retractionGcode,
;   toolChangeGcode,
;   endingGcode,M106 S0 ; turn off cooling fan,M104 S0 ; turn off extruder,M140 S0 ; turn off bed,G1 X0 Y200 ; part removal,M84 ; disable motors
;   exportFileFormat,gcode
;   celebration,0
;   celebrationSong,Random Song
;   postProcessing,
;   defaultSpeed,2400
;   outlineUnderspeed,0.8
;   solidInfillUnderspeed,0.8
;   supportUnderspeed,0.8
;   rapidXYspeed,4800
;   rapidZspeed,1000
;   minBridgingArea,50
;   bridgingExtraInflation,0
;   bridgingExtrusionMultiplier,1
;   bridgingSpeedMultiplier,1
;   useFixedBridgingAngle,0
;   fixedBridgingAngle,0
;   applyBridgingToPerimeters,0
;   filamentDiameters,1.75|1.75|1.75|1.75|1.75|1.75
;   filamentPricesPerKg,46|46|46|46|46|46
;   filamentDensities,1.25|1.25|1.25|1.25|1.25|1.25
;   useMinPrintHeight,0
;   minPrintHeight,0
;   useMaxPrintHeight,0
;   maxPrintHeight,0
;   useDiaphragm,0
;   diaphragmLayerInterval,20
;   robustSlicing,1
;   mergeAllIntoSolid,0
;   onlyRetractWhenCrossingOutline,1
;   retractBetweenLayers,1
;   useRetractionMinTravel,0
;   retractionMinTravel,3
;   retractWhileWiping,1
;   onlyWipeOutlines,1
;   avoidCrossingOutline,0
;   maxMovementDetourFactor,3
;   toolChangeRetractionDistance,12
;   toolChangeExtraRestartDistance,-0.5
;   toolChangeRetractionSpeed,600
;   externalThinWallType,0
;   internalThinWallType,2
;   thinWallAllowedOverlapPercentage,25
;   singleExtrusionMinLength,1
;   singleExtrusionMinPrintingWidthPercentage,50
;   singleExtrusionMaxPrintingWidthPercentage,200
;   singleExtrusionEndpointExtension,0.2
;   horizontalSizeCompensation,0
G90
M82
M106 S0
M140 S60
M190 S60
M104 S200 T0
M109 S200 T0
M115 U3.0.7 ; use the latest firmware version
G28 W ; home all axes without mesh bed leveling
G80 ; run mesh bed leveling routine
G1 Y-3.0 F1000.0 ; prepare to prime
G92 E0 ; reset extrusion distance
G1 X60.0 E9.0  F1000.0 ; priming
G1 X100.0 E12.5  F1000.0 ; priming
G92 E0
G1 E-1.5000 F1800
G1 Z0.200 F1000
; process Process1
; layer 1, Z = 0.200
T0
; tool H0.200 W0.480
; skirt
G1 X65.435 Y72.040 F4800
G1 E0.0000 F540
G92 E0
G1 X65.700 Y71.930 E0.0114 F1200
G1 X120.800 Y71.930 E2.2106
G1 X121.065 Y72.040 E2.2220
G1 X123.610 Y74.585 E2.3657
G1 X123.720 Y74.850 E2.3772
G1 X123.720 Y88.404 E2.9181
G1 X123.637 Y88.638 E2.9280
G1 X121.680 Y91.038 E3.0516
G1 X121.467 Y91.167 E3.0616
G1 X87.337 Y98.188 E4.4523
G1 X82.220 Y103.305 E4.7411
G1 X82.220 Y104.432 E4.7861
G1 X87.382 Y109.594 E5.0775
G1 X126.540 Y118.667 E6.6818
G1 X152.361 Y118.667 E7.7123
G1 X165.309 Y115.096 E8.2484
G1 X167.155 Y113.619 E8.3428
G1 X165.309 Y112.142 E8.4371
G1 X150.330 Y108.010 E9.0573
G1 X150.134 Y107.877 E9.0668
G1 X148.356 Y105.542 E9.1839
G1 X148.280 Y105.318 E9.1934
G1 X148.280 Y92.050 E9.7229
G1 X148.390 Y91.785 E9.7343
G1 X150.935 Y89.240 E9.8780
G1 X151.200 Y89.130 E9.8895
G1 X184.300 Y89.130 E11.2106
G1 X184.565 Y89.240 E11.2220
G1 X187.110 Y91.785 E11.3657
G1 X187.220 Y92.050 E11.3771
G1 X187.220 Y135.150 E13.0973
G1 X187.110 Y135.415 E13.1088
G1 X184.565 Y137.960 E13.2525
G1 X184.300 Y138.070 E13.2639
G1 X65.700 Y138.070 E17.9975
G1 X65.435 Y137.960 E18.0089
G1 X62.890 Y135.415 E18.1526
G1 X62.780 Y135.150 E18.1640
G1 X62.780 Y74.850 E20.5707
G1 X62.890 Y74.585 E20.5822
G1 X65.294 Y72.181 E20.7179
G1 X65.435 Y72.040 F1200
G1 X65.707 Y72.447 F4800
G92 E0
G1 X65.795 Y72.410 E0.0038 F1200
G1 X120.705 Y72.410 E2.1954
G1 X120.793 Y72.447 E2.1992
G1 X123.203 Y74.857 E2.3352
G1 X123.240 Y74.945 E2.3390
G1 X123.240 Y88.321 E2.8729
G1 X123.212 Y88.399 E2.8762
G1 X121.360 Y90.671 E2.9932
G1 X121.290 Y90.713 E2.9965
G1 X87.099 Y97.747 E4.3897
G1 X81.740 Y103.106 E4.6922
G1 X81.740 Y104.631 E4.7530
G1 X87.140 Y110.031 E5.0578
G1 X126.485 Y119.147 E6.6698
G1 X152.426 Y119.147 E7.7051
G1 X165.532 Y115.532 E8.2478
G1 X167.924 Y113.619 E8.3700
G1 X165.532 Y111.705 E8.4922
G1 X150.533 Y107.568 E9.1132
G1 X150.468 Y107.524 E9.1164
G1 X148.785 Y105.314 E9.2272
G1 X148.760 Y105.239 E9.2304
G1 X148.760 Y92.145 E9.7530
G1 X148.797 Y92.057 E9.7568
G1 X151.207 Y89.647 E9.8929
G1 X151.295 Y89.610 E9.8967
G1 X184.205 Y89.610 E11.2101
G1 X184.293 Y89.647 E11.2140
G1 X186.703 Y92.057 E11.3500
G1 X186.740 Y92.145 E11.3538
G1 X186.740 Y135.055 E13.0664
G1 X186.703 Y135.143 E13.0702
G1 X184.293 Y137.553 E13.2063
G1 X184.205 Y137.590 E13.2101
G1 X65.795 Y137.590 E17.9361
G1 X65.707 Y137.553 E17.9399
G1 X63.297 Y135.143 E18.0760
G1 X63.260 Y135.055 E18.0798
G1 X63.260 Y74.945 E20.4789
G1 X63.297 Y74.857 E20.4827
G1 X65.566 Y72.588 E20.6108
G1 X65.707 Y72.447 F1200
G92 E0
G1 E-1.5000 F1800
; inner perimeter
G1 X69.180 Y78.330 F4800
G1 E0.0000 F1800
G92 E0
G1 X117.320 Y78.330 E1.9214 F1080
G1 X117.320 Y85.486 E2.2070
G1 X84.168 Y92.306 E3.5579
G1 X75.820 Y100.654 E4.0291
G1 X75.820 Y107.083 E4.2857
G1 X84.152 Y115.416 E4.7560
G1 X125.808 Y125.067 E6.4626
G1 X153.227 Y125.067 E7.5570
G1 X168.280 Y120.915 E8.1802
G1 X174.180 Y116.195 E8.4817
G1 X174.180 Y111.043 E8.6874
G1 X168.280 Y106.322 E8.9890
G1 X154.680 Y102.571 E9.5520
G1 X154.680 Y95.530 E9.8330
G1 X180.820 Y95.530 E10.8764
G1 X180.820 Y131.670 E12.3188
G1 X69.180 Y131.670 E16.7746
G1 X69.180 Y78.530 E18.8955
G1 X69.180 Y78.330 F1080
G1 X68.700 Y77.850 F4800
G92 E0
G1 X117.800 Y77.850 E1.9597 F1080
G1 X117.800 Y85.877 E2.2801
G1 X84.406 Y92.747 E3.6408
G1 X76.300 Y100.853 E4.0984
G1 X76.300 Y106.885 E4.3391
G1 X84.394 Y114.979 E4.7960
G1 X125.863 Y124.587 E6.4949
G1 X153.162 Y124.587 E7.5845
G1 X168.057 Y120.479 E8.2012
G1 X173.700 Y115.964 E8.4896
G1 X173.700 Y111.273 E8.6768
G1 X168.057 Y106.759 E8.9653
G1 X154.200 Y102.936 E9.5390
G1 X154.200 Y95.050 E9.8537
G1 X181.300 Y95.050 E10.9354
G1 X181.300 Y132.150 E12.4161
G1 X68.700 Y132.150 E16.9102
G1 X68.700 Y78.050 E19.0695
G1 X68.700 Y77.850 F1080
G1 X68.220 Y77.370 F4800
G92 E0
G1 X118.280 Y77.370 E1.9980 F1080
G1 X118.280 Y86.269 E2.3532
G1 X84.644 Y93.188 E3.7238
G1 X76.780 Y101.052 E4.1676
G1 X76.780 Y106.686 E4.3925
G1 X84.637 Y114.542 E4.8360
G1 X125.918 Y124.107 E6.5272
G1 X153.097 Y124.107 E7.6120
G1 X167.834 Y120.042 E8.2222
G1 X173.220 Y115.734 E8.4975
G1 X173.220 Y111.504 E8.6663
G1 X167.834 Y107.195 E8.9416
G1 X153.720 Y103.302 E9.5259
G1 X153.720 Y94.570 E9.8744
G1 X181.780 Y94.570 E10.9944
G1 X181.780 Y132.630 E12.5134
G1 X68.220 Y132.630 E17.0458
G1 X68.220 Y77.570 E19.2434
G1 X68.220 Y77.370 F1080
; outer perimeter
G1 X67.740 Y76.890 F4800
G92 E0
G1 X118.760 Y76.890 E2.0363 F960
G1 X118.760 Y86.660 E2.4263
G1 X84.881 Y93.629 E3.8068
G1 X77.260 Y101.251 E4.2369
G1 X77.260 Y106.487 E4.4459
G1 X84.879 Y114.106 E4.8760
G1 X125.973 Y123.627 E6.5596
G1 X153.032 Y123.627 E7.6396
G1 X167.611 Y119.606 E8.2432
G1 X172.740 Y115.503 E8.5053
G1 X172.740 Y111.735 E8.6557
G1 X167.611 Y107.632 E8.9179
G1 X153.240 Y103.667 E9.5129
G1 X153.240 Y94.090 E9.8951
G1 X182.260 Y94.090 E11.0534
G1 X182.260 Y133.110 E12.6107
G1 X67.740 Y133.110 E17.1815
G1 X67.740 Y77.090 E19.4174
G1 X67.740 Y76.890 F960
G1 X69.740 Y76.890 F2400
; inner perimeter
G1 X72.653 Y80.450 F4800
G92 E0
G1 X71.888 Y81.038 E0.0385 F1080
G1 X71.300 Y81.803 E0.0770
G1 X70.931 Y82.694 E0.1155
G1 X70.805 Y83.650 E0.1540
G1 X70.931 Y84.606 E0.1925
G1 X71.300 Y85.497 E0.2310
G1 X71.888 Y86.262 E0.2695
G1 X72.653 Y86.850 E0.3079
G1 X73.544 Y87.219 E0.3464
G1 X74.500 Y87.344 E0.3849
G1 X75.456 Y87.219 E0.4234
G1 X76.347 Y86.850 E0.4619
G1 X77.112 Y86.262 E0.5004
G1 X77.700 Y85.497 E0.5389
G1 X78.069 Y84.606 E0.5774
G1 X78.195 Y83.650 E0.6159
G1 X78.069 Y82.694 E0.6544
G1 X77.700 Y81.803 E0.6929
G1 X77.112 Y81.038 E0.7314
G1 X76.347 Y80.450 E0.7699
G1 X75.456 Y80.081 E0.8084
G1 X74.500 Y79.956 E0.8469
G1 X73.544 Y80.081 E0.8854
G1 X72.838 Y80.374 E0.9159
G1 X72.653 Y80.450 F1080
G1 X72.895 Y80.870 F4800
G92 E0
G1 X72.230 Y81.380 E0.0334 F1080
G1 X71.720 Y82.045 E0.0669
G1 X71.399 Y82.819 E0.1003
G1 X71.290 Y83.650 E0.1338
G1 X71.399 Y84.481 E0.1672
G1 X71.720 Y85.255 E0.2007
G1 X72.230 Y85.920 E0.2341
G1 X72.895 Y86.430 E0.2676
G1 X73.669 Y86.751 E0.3010
G1 X74.500 Y86.860 E0.3345
G1 X75.331 Y86.751 E0.3679
G1 X76.105 Y86.430 E0.4014
G1 X76.770 Y85.920 E0.4348
G1 X77.280 Y85.255 E0.4683
G1 X77.601 Y84.481 E0.5017
G1 X77.710 Y83.650 E0.5352
G1 X77.601 Y82.819 E0.5686
G1 X77.280 Y82.045 E0.6021
G1 X76.770 Y81.380 E0.6355
G1 X76.105 Y80.870 E0.6690
G1 X75.331 Y80.549 E0.7024
G1 X74.500 Y80.440 E0.7359
G1 X73.669 Y80.549 E0.7693
G1 X73.080 Y80.793 E0.7948
G1 X72.895 Y80.870 F1080
G1 X73.137 Y81.289 F4800
G92 E0
G1 X72.572 Y81.722 E0.0284 F1080
G1 X72.139 Y82.287 E0.0568
G1 X71.867 Y82.944 E0.0852
G1 X71.774 Y83.650 E0.1136
G1 X71.867 Y84.356 E0.1420
G1 X72.139 Y85.013 E0.1704
G1 X72.572 Y85.578 E0.1988
G1 X73.137 Y86.011 E0.2272
G1 X73.794 Y86.283 E0.2556
G1 X74.500 Y86.376 E0.2840
G1 X75.206 Y86.283 E0.3125
G1 X75.863 Y86.011 E0.3409
G1 X76.428 Y85.578 E0.3693
G1 X76.861 Y85.013 E0.3977
G1 X77.133 Y84.356 E0.4261
G1 X77.226 Y83.650 E0.4545
G1 X77.133 Y82.944 E0.4829
G1 X76.861 Y82.287 E0.5113
G1 X76.428 Y81.722 E0.5397
G1 X75.863 Y81.289 E0.5681
G1 X75.206 Y81.017 E0.5965
G1 X74.500 Y80.924 E0.6249
G1 X73.794 Y81.017 E0.6533
G1 X73.322 Y81.212 E0.6737
G1 X73.137 Y81.289 F1080
; outer perimeter
G1 X73.379 Y81.708 F4800
G92 E0
G1 X72.915 Y82.065 E0.0234 F960
G1 X72.558 Y82.529 E0.0467
G1 X72.334 Y83.070 E0.0701
G1 X72.258 Y83.650 E0.0934
G1 X72.334 Y84.230 E0.1168
G1 X72.558 Y84.771 E0.1402
G1 X72.915 Y85.235 E0.1635
G1 X73.379 Y85.592 E0.1869
G1 X73.920 Y85.816 E0.2102
G1 X74.500 Y85.892 E0.2336
G1 X75.080 Y85.816 E0.2570
G1 X75.621 Y85.592 E0.2803
G1 X76.085 Y85.235 E0.3037
G1 X76.442 Y84.771 E0.3270
G1 X76.666 Y84.230 E0.3504
G1 X76.742 Y83.650 E0.3738
G1 X76.666 Y83.070 E0.3971
G1 X76.442 Y82.529 E0.4205
G1 X76.085 Y82.065 E0.4438
G1 X75.621 Y81.708 E0.4672
G1 X75.080 Y81.484 E0.4906
G1 X74.500 Y81.408 E0.5139
G1 X73.920 Y81.484 E0.5373
G1 X73.564 Y81.632 E0.5527
G1 X73.379 Y81.708 F960
G1 X72.915 Y82.065 F2400
G1 X72.558 Y82.529 F2400
G1 X72.334 Y83.070 F2400
G1 X72.302 Y83.312 F2400
; inner perimeter
G1 X74.500 Y122.655 F4800
G92 E0
G1 X73.544 Y122.781 E0.0385 F1080
G1 X72.653 Y123.150 E0.0770
G1 X71.888 Y123.738 E0.1155
G1 X71.300 Y124.503 E0.1540
G1 X70.931 Y125.394 E0.1925
G1 X70.805 Y126.350 E0.2310
G1 X70.931 Y127.306 E0.2695
G1 X71.300 Y128.197 E0.3079
G1 X71.888 Y128.962 E0.3464
G1 X72.653 Y129.550 E0.3849
G1 X73.544 Y129.919 E0.4234
G1 X74.500 Y130.044 E0.4619
G1 X75.456 Y129.919 E0.5004
G1 X76.347 Y129.550 E0.5389
G1 X77.112 Y128.962 E0.5774
G1 X77.700 Y128.197 E0.6159
G1 X78.069 Y127.306 E0.6544
G1 X78.195 Y126.350 E0.6929
G1 X78.069 Y125.394 E0.7314
G1 X77.700 Y124.503 E0.7699
G1 X77.112 Y123.738 E0.8084
G1 X76.347 Y123.150 E0.8469
G1 X75.456 Y122.781 E0.8854
G1 X74.698 Y122.682 E0.9159
G1 X74.500 Y122.655 F1080
G1 X74.500 Y123.140 F4800
G92 E0
G1 X73.669 Y123.249 E0.0334 F1080
G1 X72.895 Y123.570 E0.0669
G1 X72.230 Y124.080 E0.1003
G1 X71.720 Y124.745 E0.1338
G1 X71.399 Y125.519 E0.1672
G1 X71.290 Y126.350 E0.2007
G1 X71.399 Y127.181 E0.2341
G1 X71.720 Y127.955 E0.2676
G1 X72.230 Y128.620 E0.3010
G1 X72.895 Y129.130 E0.3345
G1 X73.669 Y129.451 E0.3679
G1 X74.500 Y129.560 E0.4014
G1 X75.331 Y129.451 E0.4348
G1 X76.105 Y129.130 E0.4683
G1 X76.770 Y128.620 E0.5017
G1 X77.280 Y127.955 E0.5352
G1 X77.601 Y127.181 E0.5686
G1 X77.710 Y126.350 E0.6021
G1 X77.601 Y125.519 E0.6355
G1 X77.280 Y124.745 E0.6690
G1 X76.770 Y124.080 E0.7024
G1 X76.105 Y123.570 E0.7359
G1 X75.331 Y123.249 E0.7693
G1 X74.698 Y123.166 E0.7948
G1 X74.500 Y123.140 F1080
G1 X74.500 Y123.624 F4800
G92 E0
G1 X73.794 Y123.717 E0.0284 F1080
G1 X73.137 Y123.989 E0.0568
G1 X72.572 Y124.422 E0.0852
G1 X72.139 Y124.987 E0.1136
G1 X71.867 Y125.644 E0.1420
G1 X71.774 Y126.350 E0.1704
G1 X71.867 Y127.056 E0.1988
G1 X72.139 Y127.713 E0.2272
G1 X72.572 Y128.278 E0.2556
G1 X73.137 Y128.711 E0.2840
G1 X73.794 Y128.983 E0.3125
